svgs/light/square-question.svg

<svg xmlns="http://www.w3.org/2000/svg" viewBox="0 0 448 512"><!-- Font Awesome Pro 6.0.0-alpha2 by @fontawesome - https://fontawesome.com License - https://fontawesome.com/license (Commercial License) --><path d="M253.625 128H194.375C157.781 128 128 157.766 128 194.359V204C128 212.844 135.156 220 144 220S160 212.844 160 204V194.359C160 175.406 175.406 160 194.375 160H253.625C272.594 160 288 175.406 288 194.359C288 206.844 281.219 218.359 270.938 224.078L210.5 254.297C199.094 260.656 192 272.703 192 285.766V304C192 312.844 199.156 320 208 320S224 312.844 224 304V285.766C224 284.312 224.781 282.969 225.438 282.594L285.844 252.375C306.906 240.703 320 218.469 320 194.359C320 157.766 290.219 128 253.625 128ZM208 344C194.746 344 184 354.746 184 368S194.746 392 208 392S232 381.254 232 368S221.254 344 208 344ZM384 32H64C28.654 32 0 60.654 0 96V416C0 451.346 28.654 480 64 480H384C419.346 480 448 451.346 448 416V96C448 60.654 419.346 32 384 32ZM416 416C416 433.645 401.645 448 384 448H64C46.355 448 32 433.645 32 416V96C32 78.355 46.355 64 64 64H384C401.645 64 416 78.355 416 96V416Z"/></svg>

<svg xmlns="http://www.w3.org/2000/svg" viewBox="0 0 448 512"><!--! Font Awesome Pro 6.3.0 by @fontawesome - https://fontawesome.com License - https://fontawesome.com/license (Commercial License) Copyright 2023 Fonticons, Inc. --><path d="M253.6 128H194.4C157.8 128 128 157.8 128 194.4V204c0 8.844 7.156 16 16 16S160 212.8 160 204V194.4C160 175.4 175.4 160 194.4 160h59.25C272.6 160 288 175.4 288 194.4c0 12.48-6.781 24-17.06 29.72L210.5 254.3C199.1 260.7 192 272.7 192 285.8V304C192 312.8 199.2 320 208 320S224 312.8 224 304V285.8c0-1.453 .7813-2.797 1.438-3.172l60.41-30.22C306.9 240.7 320 218.5 320 194.4C320 157.8 290.2 128 253.6 128zM208 344c-13.25 0-24 10.75-24 24s10.75 24 24 24s24-10.75 24-24S221.3 344 208 344zM384 32H64C28.65 32 0 60.65 0 96v320c0 35.35 28.65 64 64 64h320c35.35 0 64-28.65 64-64V96C448 60.65 419.3 32 384 32zM416 416c0 17.64-14.36 32-32 32H64c-17.64 0-32-14.36-32-32V96c0-17.64 14.36-32 32-32h320c17.64 0 32 14.36 32 32V416z"/></svg>
